frontend/src/images/advantages-3.svg

<svg width="140" height="98" viewBox="0 0 140 98" fill="none" xmlns="http://www.w3.org/2000/svg">
<path d="M14 83.71H0V97.71H14V83.71Z" fill="#2E3840"/>
<path d="M14 0H0V14H14V0Z" fill="#2E3840"/>
<path d="M28 83.71H14V97.71H28V83.71Z" fill="#2E3840"/>
<path d="M28 0H14V14H28V0Z" fill="#2E3840"/>
<path d="M28 42H14V56H28V42Z" fill="#2E3840"/>
<path d="M42 83.71H28V97.71H42V83.71Z" fill="#2E3840"/>
<path d="M42 0H28V14H42V0Z" fill="#2E3840"/>
<path d="M42 42H28V56H42V42Z" fill="#2E3840"/>
<path d="M56 83.71H42V97.71H56V83.71Z" fill="#2E3840"/>
<path d="M56 0H42V14H56V0Z" fill="#2E3840"/>
<path d="M56 42H42V56H56V42Z" fill="#2E3840"/>
<path d="M70 83.71H56V97.71H70V83.71Z" fill="#2E3840"/>
<path d="M70 0H56V14H70V0Z" fill="#2E3840"/>
<path d="M70 42H56V56H70V42Z" fill="#2E3840"/>
<path d="M84 83.71H70V97.71H84V83.71Z" fill="#2E3840"/>
<path d="M84 0H70V14H84V0Z" fill="#2E3840"/>
<path d="M84 42H70V56H84V42Z" fill="#2E3840"/>
<path d="M98 83.71H84V97.71H98V83.71Z" fill="#2E3840"/>
<path d="M98 0H84V14H98V0Z" fill="#2E3840"/>
<path d="M98 42H84V56H98V42Z" fill="#2E3840"/>
<path d="M112 83.71H98V97.71H112V83.71Z" fill="#2E3840"/>
<path d="M112 0H98V14H112V0Z" fill="#2E3840"/>
<path d="M112 42H98V56H112V42Z" fill="#2E3840"/>
<path d="M126 83.71H112V97.71H126V83.71Z" fill="#2E3840"/>
<path d="M126 0H112V14H126V0Z" fill="#2E3840"/>
<path d="M126 42H112V56H126V42Z" fill="#2E3840"/>
<path d="M140 70H126V84H140V70Z" fill="#2E3840"/>
<path d="M140 28H126V42H140V28Z" fill="#2E3840"/>
<path d="M140 56H126V70H140V56Z" fill="#2E3840"/>
<path d="M140 14H126V28H140V14Z" fill="#2E3840"/>
</svg>

<svg width="140" height="98" fill="none" xmlns="http://www.w3.org/2000/svg"><path d="M14 83.71H0v14h14v-14zM14 0H0v14h14V0zM28 83.71H14v14h14v-14zM28 0H14v14h14V0zM28 42H14v14h14V42zM42 83.71H28v14h14v-14zM42 0H28v14h14V0zM42 42H28v14h14V42zM56 83.71H42v14h14v-14zM56 0H42v14h14V0zM56 42H42v14h14V42zM70 83.71H56v14h14v-14zM70 0H56v14h14V0zM70 42H56v14h14V42zM84 83.71H70v14h14v-14zM84 0H70v14h14V0zM84 42H70v14h14V42zM98 83.71H84v14h14v-14zM98 0H84v14h14V0zM98 42H84v14h14V42zM112 83.71H98v14h14v-14zM112 0H98v14h14V0zM112 42H98v14h14V42zM126 83.71h-14v14h14v-14zM126 0h-14v14h14V0zM126 42h-14v14h14V42zM140 70h-14v14h14V70zM140 28h-14v14h14V28zM140 56h-14v14h14V56zM140 14h-14v14h14V14z" fill="#2E3840"/></svg>
